X: 39730
T: Thadelo's
R: slide
M: 12/8
K: Amajor
c3 cBA B2A F2A|A2B c2d e3 e2B|ccc cBA B2A F2A|A2B c2B A3 A2B||
c3 cBA B2A F2A|A2B c2d e3 e2B|BAB cBA B2A F2A|A2B c2B A3 A3|
|:f2e cBA B2A F3|f2e c2d e3 ece|f2e cBA B2A F2A|1 A2B c2B A3 A2f:|2 A2B c2B A3 A2B||

